elementary-xfce/panel/16/gnome-do-symbolic.svg

<?xml version="1.0" encoding="UTF-8" standalone="no"?>
<svg
   xmlns:dc="http://purl.org/dc/elements/1.1/"
   xmlns:cc="http://creativecommons.org/ns#"
   xmlns:rdf="http://www.w3.org/1999/02/22-rdf-syntax-ns#"
   xmlns:svg="http://www.w3.org/2000/svg"
   xmlns="http://www.w3.org/2000/svg"
   xmlns:xlink="http://www.w3.org/1999/xlink"
   xmlns:sodipodi="http://sodipodi.sourceforge.net/DTD/sodipodi-0.dtd"
   xmlns:inkscape="http://www.inkscape.org/namespaces/inkscape"
   version="1.0"
   width="16"
   height="16"
   id="svg3239"
   sodipodi:docname="gnome-do-symbolic.svg"
   inkscape:version="0.92.4 (5da689c313, 2019-01-14)">
  <sodipodi:namedview
     pagecolor="#ffffff"
     bordercolor="#666666"
     borderopacity="1"
     objecttolerance="10"
     gridtolerance="10"
     guidetolerance="10"
     inkscape:pageopacity="0"
     inkscape:pageshadow="2"
     inkscape:window-width="1920"
     inkscape:window-height="1021"
     id="namedview12"
     showgrid="false"
     inkscape:zoom="14.75"
     inkscape:cx="8"
     inkscape:cy="7.4576271"
     inkscape:window-x="0"
     inkscape:window-y="0"
     inkscape:window-maximized="1"
     inkscape:current-layer="layer1" />
  <metadata
     id="metadata73496">
    <rdf:RDF>
      <cc:Work
         rdf:about="">
        <dc:format>image/svg+xml</dc:format>
        <dc:type
           rdf:resource="http://purl.org/dc/dcmitype/StillImage" />
      </cc:Work>
    </rdf:RDF>
  </metadata>
  <defs
     id="defs3241">
    <linearGradient
       id="linearGradient3587-6-5">
      <stop
         id="stop3589-9-2"
         style="stop-color:#000000;stop-opacity:1"
         offset="0" />
      <stop
         id="stop3591-7-4"
         style="stop-color:#363636;stop-opacity:1"
         offset="1" />
    </linearGradient>
    <linearGradient
       x1="32.361256"
       y1="4.561305"
       x2="32.361256"
       y2="18.561304"
       id="linearGradient3232"
       xlink:href="#linearGradient3587-6-5"
       gradientUnits="userSpaceOnUse"
       gradientTransform="translate(-24.361257,-3.5613052)" />
  </defs>
  <g
     id="layer1">
    <path
       d="m 2,0.99999986 c -1.10800001,0 -2,0.89200004 -2,2.00000004 V 13 c 0,1.108 0.89199999,2 2,2 h 12 c 1.108,0 2,-0.892 2,-2 V 2.9999999 c 0,-1.108 -0.892,-2.00000004 -2,-2.00000004 z M 8.5624997,2.9999999 c 0.134251,0.02337 0.218751,0.113466 0.21875,0.34375 v 1.46875 c 0.299919,0.07742 0.645256,0.22389 0.90625,0.375 L 10.75,4.2187499 c 0.335981,-0.419071 0.585882,-0.122791 0.90625,0.25 0.300156,0.349272 0.450602,0.455581 0.125,0.78125 l -0.9375,1.0625 c 0.158474,0.262819 0.295269,0.63367 0.375,0.9375 H 12.625 c 0.460469,0 0.375,0.289435 0.375,0.75 0,0.460567 0.02297,0.78125 -0.4375,0.78125 h -1.34375 c -0.07988,0.305823 -0.216043,0.642624 -0.375,0.90625 l 1,1.0625001 c 0.371282,0.325669 0.06958,0.528902 -0.25,0.875 -0.325838,0.352876 -0.571623,0.527051 -0.90625,0.15625 l -1.0000003,-0.9375 c -0.260993,0.151108 -0.606331,0.266331 -0.90625,0.34375 l 0.03125,1.4375 c 0,0.460566 -0.352029,0.375 -0.8125,0.375 -0.460472,0 -0.75,0.05432 -0.75,-0.40625 l 0.03125,-1.40625 c -0.299918,-0.07742 -0.67651,-0.192642 -0.9375,-0.34375 l -1,0.96875 c -0.325603,0.325668 -0.524111,0.07949 -0.875,-0.21875 -0.348898,-0.296545 -0.6153078,-0.53094 -0.25,-0.90625 l 0.9375,-1.0000001 c -0.158475,-0.262821 -0.29527,-0.602425 -0.375,-0.90625 H 3.375 c -0.460471,0 -0.34375,-0.320683 -0.34375,-0.78125 0,-0.460565 -0.1479719,-0.75 0.3125,-0.75 h 1.4374997 c 0.07988,-0.305826 0.216041,-0.673874 0.375,-0.9375 l -0.9375,-1.03125 c -0.2709107,-0.265716 -0.166449,-0.411127 0.25,-0.8125 0.184284,-0.177613 0.287537,-0.3125 0.5,-0.3125 0.212465,0 0.243448,-0.03784 0.40625,0.125 l 0.96875,0.90625 c 0.260991,-0.15111 0.606332,-0.297583 0.90625,-0.375 v -1.4375 c 0,-0.460567 0.289528,-0.34375 0.75,-0.34375 0.230236,0 0.428249,-0.05462 0.5625,-0.03125 z m -0.5625,3.46875 c -0.847034,0 -1.53125,0.684042 -1.53125,1.53125 0,0.847208 0.684216,1.53125 1.53125,1.53125 0.847032,0 1.53125,-0.684042 1.53125,-1.53125 0,-0.847208 -0.684219,-1.53125 -1.53125,-1.53125 z"
       id="rect2386"
       style="display:inline;overflow:visible;visibility:visible;opacity:0.99999999;fill:#666666;fill-opacity:1;fill-rule:nonzero;stroke:none;stroke-width:1;stroke-linecap:square;stroke-linejoin:miter;stroke-miterlimit:4;stroke-dasharray:none;stroke-dashoffset:0;stroke-opacity:1;marker:none;marker-start:none;marker-mid:none;marker-end:none;enable-background:accumulate"
       inkscape:connector-curvature="0" />
  </g>
</svg>

<?xml version="1.0" encoding="UTF-8" standalone="no"?>
<svg
   xmlns:dc="http://purl.org/dc/elements/1.1/"
   xmlns:cc="http://creativecommons.org/ns#"
   xmlns:rdf="http://www.w3.org/1999/02/22-rdf-syntax-ns#"
   xmlns:svg="http://www.w3.org/2000/svg"
   xmlns="http://www.w3.org/2000/svg"
   xmlns:xlink="http://www.w3.org/1999/xlink"
   version="1.0"
   width="16"
   height="16"
   id="svg3239">
  <metadata
     id="metadata73496">
    <rdf:RDF>
      <cc:Work
         rdf:about="">
        <dc:format>image/svg+xml</dc:format>
        <dc:type
           rdf:resource="http://purl.org/dc/dcmitype/StillImage" />
      </cc:Work>
    </rdf:RDF>
  </metadata>
  <defs
     id="defs3241">
    <linearGradient
       id="linearGradient3587-6-5">
      <stop
         id="stop3589-9-2"
         style="stop-color:#000000;stop-opacity:1"
         offset="0" />
      <stop
         id="stop3591-7-4"
         style="stop-color:#363636;stop-opacity:1"
         offset="1" />
    </linearGradient>
    <linearGradient
       x1="32.361256"
       y1="4.561305"
       x2="32.361256"
       y2="18.561304"
       id="linearGradient3232"
       xlink:href="#linearGradient3587-6-5"
       gradientUnits="userSpaceOnUse"
       gradientTransform="translate(-24.361257,-3.561305)" />
  </defs>
  <g
     id="layer1">
    <path
       d="M 2,2 C 0.892,2 0,2.892 0,4 L 0,14 C 0,15.108 0.892,16 2,16 L 14,16 C 15.108,16 16,15.108 16,14 L 16,4 C 16,2.892 15.108,2 14,2 L 2,2 z M 8.5625,4 C 8.696751,4.0233656 8.781251,4.1134665 8.78125,4.34375 L 8.78125,5.8125 C 9.081169,5.889919 9.426506,6.03639 9.6875,6.1875 L 10.75,5.21875 C 11.085981,4.799679 11.335882,5.095959 11.65625,5.46875 C 11.956406,5.818022 12.106852,5.9243309 11.78125,6.25 L 10.84375,7.3125 C 11.002224,7.575319 11.139019,7.94617 11.21875,8.25 L 12.625,8.25 C 13.085469,8.25 13,8.539435 13,9 C 13,9.460567 13.02297,9.78125 12.5625,9.78125 L 11.21875,9.78125 C 11.138866,10.087073 11.002707,10.423874 10.84375,10.6875 L 11.84375,11.75 C 12.215032,12.075669 11.913331,12.278902 11.59375,12.625 C 11.267912,12.977876 11.022127,13.152051 10.6875,12.78125 L 9.6875,11.84375 C 9.426507,11.994858 9.081169,12.110081 8.78125,12.1875 L 8.8125,13.625 C 8.8125,14.085566 8.460471,14 8,14 C 7.539528,14 7.25,14.054317 7.25,13.59375 L 7.28125,12.1875 C 6.981332,12.110081 6.60474,11.994858 6.34375,11.84375 L 5.34375,12.8125 C 5.018147,13.138168 4.8196387,12.891989 4.46875,12.59375 C 4.119852,12.297205 3.8534419,12.06281 4.21875,11.6875 L 5.15625,10.6875 C 4.997775,10.424679 4.8609797,10.085075 4.78125,9.78125 L 3.375,9.78125 C 2.914529,9.78125 3.03125,9.460567 3.03125,9 C 3.03125,8.539435 2.8832781,8.25 3.34375,8.25 L 4.78125,8.25 C 4.861134,7.944174 4.9972911,7.576126 5.15625,7.3125 L 4.21875,6.28125 C 3.947839,6.015534 4.052301,5.8701228 4.46875,5.46875 C 4.653034,5.291137 4.7562867,5.1562503 4.96875,5.15625 C 5.181215,5.15625 5.2121974,5.118414 5.375,5.28125 L 6.34375,6.1875 C 6.604741,6.03639 6.950082,5.8899171 7.25,5.8125 L 7.25,4.375 C 7.25,3.914433 7.539528,4.0312502 8,4.03125 C 8.230236,4.03125 8.428249,3.9766344 8.5625,4 z M 8,7.46875 C 7.152966,7.46875 6.46875,8.152792 6.46875,9 C 6.46875,9.847208 7.152966,10.53125 8,10.53125 C 8.847032,10.53125 9.53125,9.847208 9.53125,9 C 9.53125,8.152792 8.847031,7.46875 8,7.46875 z"
       id="path3235"
       style="opacity:0.6;fill:#ffffff;fill-opacity:1;fill-rule:nonzero;stroke:none;stroke-width:1;stroke-linecap:square;stroke-linejoin:miter;marker:none;marker-start:none;marker-mid:none;marker-end:none;stroke-miterlimit:4;stroke-dasharray:none;stroke-dashoffset:0;stroke-opacity:1;visibility:visible;display:inline;overflow:visible;enable-background:accumulate" />
    <path
       d="M 2,1 C 0.892,1 0,1.892 0,3 L 0,13 C 0,14.108 0.892,15 2,15 L 14,15 C 15.108,15 16,14.108 16,13 L 16,3 C 16,1.892 15.108,1 14,1 L 2,1 z M 8.5625,3 C 8.696751,3.0233656 8.781251,3.1134665 8.78125,3.34375 L 8.78125,4.8125 C 9.081169,4.889919 9.426506,5.0363897 9.6875,5.1875 L 10.75,4.21875 C 11.085981,3.799679 11.335882,4.095959 11.65625,4.46875 C 11.956406,4.818022 12.106852,4.9243309 11.78125,5.25 L 10.84375,6.3125 C 11.002224,6.575319 11.139019,6.94617 11.21875,7.25 L 12.625,7.25 C 13.085469,7.25 13,7.539435 13,8 C 13,8.460567 13.02297,8.78125 12.5625,8.78125 L 11.21875,8.78125 C 11.138866,9.087073 11.002707,9.423874 10.84375,9.6875 L 11.84375,10.75 C 12.215032,11.075669 11.913331,11.278902 11.59375,11.625 C 11.267912,11.977876 11.022127,12.152051 10.6875,11.78125 L 9.6875,10.84375 C 9.426507,10.994858 9.081169,11.110081 8.78125,11.1875 L 8.8125,12.625 C 8.8125,13.085566 8.460471,13 8,13 C 7.539528,13 7.25,13.054317 7.25,12.59375 L 7.28125,11.1875 C 6.981332,11.110081 6.60474,10.994858 6.34375,10.84375 L 5.34375,11.8125 C 5.018147,12.138168 4.8196387,11.891989 4.46875,11.59375 C 4.119852,11.297205 3.8534419,11.06281 4.21875,10.6875 L 5.15625,9.6875 C 4.997775,9.424679 4.8609797,9.085075 4.78125,8.78125 L 3.375,8.78125 C 2.914529,8.78125 3.03125,8.460567 3.03125,8 C 3.03125,7.539435 2.8832781,7.25 3.34375,7.25 L 4.78125,7.25 C 4.861134,6.944174 4.9972911,6.576126 5.15625,6.3125 L 4.21875,5.28125 C 3.947839,5.015534 4.052301,4.8701228 4.46875,4.46875 C 4.653034,4.291137 4.7562867,4.1562503 4.96875,4.15625 C 5.181215,4.15625 5.2121974,4.118414 5.375,4.28125 L 6.34375,5.1875 C 6.604741,5.03639 6.950082,4.8899171 7.25,4.8125 L 7.25,3.375 C 7.25,2.914433 7.539528,3.0312502 8,3.03125 C 8.230236,3.03125 8.428249,2.9766344 8.5625,3 z M 8,6.46875 C 7.152966,6.46875 6.46875,7.152792 6.46875,8 C 6.46875,8.847208 7.152966,9.53125 8,9.53125 C 8.847032,9.53125 9.53125,8.847208 9.53125,8 C 9.53125,7.152792 8.847031,6.46875 8,6.46875 z"
       id="rect2386"
       style="opacity:0.7;fill:url(#linearGradient3232);fill-opacity:1;fill-rule:nonzero;stroke:none;stroke-width:1;stroke-linecap:square;stroke-linejoin:miter;marker:none;marker-start:none;marker-mid:none;marker-end:none;stroke-miterlimit:4;stroke-dasharray:none;stroke-dashoffset:0;stroke-opacity:1;visibility:visible;display:inline;overflow:visible;enable-background:accumulate" />
  </g>
</svg>
